storage/app/icons/phosphoricons/fill/traffic-signal-fill.svg

<svg xmlns="http://www.w3.org/2000/svg" fill="currentColor" viewBox="0 0 256 256"><path d="M216 144h-16V80h16a8 8 0 0 0 0-16h-16V40a16 16 0 0 0-16-16H72a16 16 0 0 0-16 16v24H40a8 8 0 0 0 0 16h16v64H40a8 8 0 0 0 0 16h16v56a16 16 0 0 0 16 16h112a16 16 0 0 0 16-16v-56h16a8 8 0 0 0 0-16m-88-28a28 28 0 1 1 28-28 28 28 0 0 1-28 28m0 24a28 28 0 1 1-28 28 28 28 0 0 1 28-28"/></svg>

<svg xmlns="http://www.w3.org/2000/svg" viewBox="0 0 256 256" fill="currentColor"><path d="M216,144H200V80h16a8,8,0,0,0,0-16H200V40a16,16,0,0,0-16-16H72A16,16,0,0,0,56,40V64H40a8,8,0,0,0,0,16H56v64H40a8,8,0,0,0,0,16H56v56a16,16,0,0,0,16,16H184a16,16,0,0,0,16-16V160h16a8,8,0,0,0,0-16Zm-88-28a28,28,0,1,1,28-28A28,28,0,0,1,128,116Zm0,24a28,28,0,1,1-28,28A28,28,0,0,1,128,140Z"/></svg>
